svg/OSM-icons/office #0b0b61 °ffffff !label=enoffices,deBüros/25040;office=newspaper;[addr];[contact];!label=ennewspaper,deZeitungs- verlag.svg

<svg xmlns="http://www.w3.org/2000/svg" viewBox="0 0 580 580" enable-background="new 0 0 580 580"><path fill="#111" stroke="#eee" stroke-width="3.408" d="m66.28 1.768c-41.34 0-64.57 21.371-64.57 65.04v450.12c0 40.844 20.894 62.23 62.19 62.23h452.02c41.31 0 62.23-20.316 62.23-62.23v-450.12c0-42.601-20.923-65.04-63.52-65.04-.003 0-448.49-.143-448.35 0z"/><g fill="#fff"><path d="m309.09 427.58h-66.46c1.362-3.477 2.116-7.256 2.116-11.215v-32.546l-2.429-29.659c-4.677-11.03-15.604-18.766-28.338-18.766h-64.775c-12.734 0-23.661 7.737-28.338 18.767l-2.429 29.657v32.547c0 3.959.754 7.738 2.116 11.215h-66.45v22.498 9 77.996h10.5v-77.996h233.99v77.996h10.498v-77.996h.002v-31.498m-88.63-50.891v50.891h-7.287v-50.891h7.287m-77.73 0h7.288v50.891h-7.288v-50.891"/><circle cx="181.6" cy="284.66" r="37.65"/><path d="m516.48 51.1h-250.72l-43.603 136.26c0 29.5 23.914 53.41 53.41 53.41h218.02c29.5 0 53.41-23.914 53.41-53.41l-30.522-136.26m-121 22.891h102.47v10.9h-102.47v-10.9m0 34.882h105.74v6.54h-105.74v-6.54m0 22.529h109.37v6.541h-109.37v-6.541m0 22.528h113.37v6.541h-113.37v-6.541m0 22.527h118.82v6.541h-118.82v-6.541m-23.982-2.179v14.171 28.342h-111.19c-9.811-6.54-7.63-28.342-7.63-28.342l32.702-109.01h86.12v94.84m150.43 29.432h-126.45v-6.541h126.45v6.541"/></g></svg>

<?xml version="1.0" encoding="utf-8"?>
<!-- Generator: Adobe Illustrator 15.0.0, SVG Export Plug-In . SVG Version: 6.00 Build 0)  -->
<!DOCTYPE svg PUBLIC "-//W3C//DTD SVG 1.1//EN" "http://www.w3.org/Graphics/SVG/1.1/DTD/svg11.dtd">
<svg version="1.1" xmlns="http://www.w3.org/2000/svg" xmlns:xlink="http://www.w3.org/1999/xlink" x="0px" y="0px" width="580px"
	 height="580px" viewBox="0 0 580 580" enable-background="new 0 0 580 580" xml:space="preserve">
<g id="Layer_2">
	<g id="g1327">
		<path id="path1329" fill="#111111" stroke="#EEEEEE" stroke-width="3.408" d="M66.275,1.768
			c-41.335,0-64.571,21.371-64.571,65.036v450.123c0,40.844,20.894,62.229,62.192,62.229H515.92
			c41.307,0,62.229-20.316,62.229-62.229V66.804c0-42.601-20.923-65.036-63.522-65.036C514.624,1.768,66.133,1.625,66.275,1.768z"/>
	</g>
</g>
<g id="svg2" inkscape:output_extension="org.inkscape.output.svg.inkscape" xmlns:cc="http://creativecommons.org/ns#" xmlns:svg="http://www.w3.org/2000/svg" xmlns:sodipodi="http://sodipodi.sourceforge.net/DTD/sodipodi-0.dtd" xmlns:rdf="http://www.w3.org/1999/02/22-rdf-syntax-ns#" xmlns:dc="http://purl.org/dc/elements/1.1/" xmlns:inkscape="http://www.inkscape.org/namespaces/inkscape" sodipodi:docname="waste_bin.svg" inkscape:version="0.46" sodipodi:version="0.32">
	<g>
		<g>
			<path fill="#FFFFFF" d="M309.094,427.584h-66.456c1.362-3.477,2.116-7.256,2.116-11.215v-32.546l-2.429-29.659
				c-4.677-11.028-15.604-18.766-28.338-18.766h-64.775c-12.734,0-23.661,7.737-28.338,18.767l-2.429,29.657v32.547
				c0,3.959,0.754,7.738,2.116,11.215H54.106v22.498v9v77.996h10.5v-77.996h233.988v77.996h10.498v-77.996h0.002V427.584z
				 M220.464,376.693v50.891h-7.287v-50.891H220.464z M142.735,376.693h7.288v50.891h-7.288V376.693z"/>
		</g>
		<g>
			<circle fill="#FFFFFF" cx="181.6" cy="284.664" r="37.65"/>
		</g>
	</g>
	<path fill="#FFFFFF" d="M516.477,51.104H265.758l-43.603,136.259c0,29.5,23.914,53.414,53.414,53.414h218.016
		c29.5,0,53.414-23.914,53.414-53.414L516.477,51.104z M395.478,73.995h102.468v10.9H395.478V73.995z M395.478,108.877h105.738v6.54
		H395.478V108.877z M395.478,131.406h109.373v6.541H395.478V131.406z M395.478,153.934h113.368v6.541H395.478V153.934z
		 M395.478,176.461h118.819v6.541H395.478V176.461z M371.496,174.282v14.171v28.342H260.308c-9.811-6.54-7.63-28.342-7.63-28.342
		L285.38,79.444h86.116V174.282z M521.927,203.714H395.478v-6.541h126.449V203.714z"/>
</g>
</svg>
